X: 28291
T: Mrs. Ronald MacDonald's
R: reel
M: 4/4
K: Cmajor
F|EFGc AFF2|GcEc dDDF|EFGc AFF2|GEFD C2CF|
EFGc AFF2|GcEc dDDF|EFGc Acfa|gefd c2cf||
ecgc ecce|fdec fddf|ecgc ecce|fdge c2cf|
ecgc ecce|fdec fddF|EFGc Acfa|gefd c3||

